assets/img/braze_icons/wind-03.svg

<svg fill="none" height="24" viewBox="0 0 24 24" width="24" xmlns="http://www.w3.org/2000/svg"><g clip-rule="evenodd" fill="#801ed7" fill-rule="evenodd"><path d="m19 6.5c-.5922 0-1.1233.25615-1.4909.66691-.3684.41153-1.0006.44655-1.4121.07822-.4115-.36832-.4465-1.00052-.0782-1.41204.731-.81674 1.7965-1.33309 2.9812-1.33309 2.2092 0 4 1.79086 4 4 0 2.2091-1.7908 4-4 4h-6c-.5523 0-1-.4477-1-1s.4477-1 1-1h6c1.1046 0 2-.89543 2-2s-.8954-2-2-2z"/><path d="m9 4c-.59224 0-1.12333.25615-1.49097.66691-.36833.41153-1.00052.44655-1.41205.07822-.41153-.36832-.44655-1.00052-.07822-1.41204.731-.81674 1.79648-1.33309 2.98124-1.33309 2.2091 0 4 1.79086 4 4s-1.7909 4-4 4h-7c-.55228 0-1-.44772-1-1s.44772-1 1-1h7c1.1046 0 2-.89543 2-2s-.8954-2-2-2z"/><path d="m13 20c-.5922 0-1.1233-.2562-1.491-.6669-.3683-.4115-1.0005-.4466-1.412-.0782-.41154.3683-.44657 1.0005-.0782 1.412.731.8167 1.7964 1.3331 2.9812 1.3331 2.2091 0 4-1.7909 4-4s-1.7909-4-4-4h-11c-.55228 0-1 .4477-1 1s.44772 1 1 1h11c1.1046 0 2 .8954 2 2s-.8954 2-2 2z"/></g></svg>

<svg width="24" height="24" viewBox="0 0 24 24" fill="none" xmlns="http://www.w3.org/2000/svg">
<path fill-rule="evenodd" clip-rule="evenodd" d="M19 6.5C18.4078 6.5 17.8767 6.75615 17.5091 7.16691C17.1407 7.57844 16.5085 7.61346 16.097 7.24513C15.6855 6.87681 15.6505 6.24461 16.0188 5.83309C16.7498 5.01635 17.8153 4.5 19 4.5C21.2092 4.5 23 6.29086 23 8.5C23 10.7091 21.2092 12.5 19 12.5H13C12.4477 12.5 12 12.0523 12 11.5C12 10.9477 12.4477 10.5 13 10.5H19C20.1046 10.5 21 9.60457 21 8.5C21 7.39543 20.1046 6.5 19 6.5Z" fill="#801ED7"/>
<path fill-rule="evenodd" clip-rule="evenodd" d="M9 4C8.40776 4 7.87667 4.25615 7.50903 4.66691C7.1407 5.07844 6.50851 5.11346 6.09698 4.74513C5.68545 4.37681 5.65043 3.74461 6.01876 3.33309C6.74976 2.51635 7.81524 2 9 2C11.2091 2 13 3.79086 13 6C13 8.20914 11.2091 10 9 10H2C1.44772 10 1 9.55228 1 9C1 8.44772 1.44772 8 2 8H9C10.1046 8 11 7.10457 11 6C11 4.89543 10.1046 4 9 4Z" fill="#801ED7"/>
<path fill-rule="evenodd" clip-rule="evenodd" d="M13 20C12.4078 20 11.8767 19.7438 11.509 19.3331C11.1407 18.9216 10.5085 18.8865 10.097 19.2549C9.68546 19.6232 9.65043 20.2554 10.0188 20.6669C10.7498 21.4836 11.8152 22 13 22C15.2091 22 17 20.2091 17 18C17 15.7909 15.2091 14 13 14H2C1.44772 14 1 14.4477 1 15C1 15.5523 1.44772 16 2 16H13C14.1046 16 15 16.8954 15 18C15 19.1046 14.1046 20 13 20Z" fill="#801ED7"/>
</svg>
